;FLAVOR:Marlin
;TIME:5349
;Filament used: 2.87944m
;Layer height: 0.2
;MINX:84.805
;MINY:84.789
;MINZ:0.2
;MAXX:135.148
;MAXY:135.197
;MAXZ:84.4
;TARGET_MACHINE.NAME:Creality Ender-3 S1 Pro
;Generated with Cura_SteamEngine 5.10.2
; Ender 3 S1 Pro Start G-code
; M413 S0 ; Disable power loss recovery
G92 E0 ; Reset Extruder

; Prep surfaces before auto home for better accuracy
M140 S60
M104 S200

G28 ; Home all axes
G1 Z10.0 F3000 ; Move Z Axis up little to prevent scratching of Heat Bed
G1 X0 Y0

M190 S60
M109 S200

G1 X0.1 Y20 Z0.3 F5000.0 ; Move to start position
G1 X0.1 Y200.0 Z0.3 F1500.0 E15 ; Draw the first line
G1 X0.4 Y200.0 Z0.3 F5000.0 ; Move to side a little
G1 X0.4 Y20 Z0.3 F1500.0 E30 ; Draw the second line
G92 E0 ; Reset Extruder
G1 Z2.0 F3000 ; Move Z Axis up little to prevent scratching of Heat Bed
G1 X5 Y20 Z0.3 F5000.0 ; Move over to prevent blob squish

M82 ;absolute extrusion mode
G92 E0
G92 E0
G1 F2400 E-0.8
;LAYER_COUNT:422
;LAYER:0
M107
M204 S2000
G0 F7500 X91.755 Y92.584 Z0.2
M204 S500
;TYPE:SKIRT
G1 F2400 E0
G1 F1500 X92.078 Y92.267 E0.01505
G1 X93.365 Y91.078 E0.07333
G1 X93.945 Y90.56 E0.09919
G1 X94.674 Y89.966 E0.13047
G1 X94.928 Y89.795 E0.14065
G1 X94.974 Y89.751 E0.14277
G1 X95.737 Y89.233 E0.17345
G1 X96.751 Y88.571 E0.21372
G1 X97.543 Y88.074 E0.24482
G1 X98.437 Y87.59 E0.27863
G1 X99.388 Y87.154 E0.31343
G1 X101.11 Y86.414 E0.37577
G1 X102.294 Y85.994 E0.41755
G1 X103.196 Y85.749 E0.44864
G1 X104.259 Y85.48 E0.48511
G1 X105.128 Y85.273 E0.51482
G1 X106.279 Y85.066 E0.55372
G1 X107.368 Y84.956 E0.59012
G1 X109.224 Y84.815 E0.65203
G1 X109.918 Y84.789 E0.67513
G1 X110.474 Y84.801 E0.69363
G1 X111.485 Y84.865 E0.72732
G1 X112.667 Y84.965 E0.76677
G1 X113.575 Y85.055 E0.79712
G1 X114.605 Y85.223 E0.83183
G1 X115.569 Y85.448 E0.86476
G1 X116.62 Y85.715 E0.90082
G1 X117.467 Y85.942 E0.92999
G1 X118.088 Y86.129 E0.95156
G1 X118.465 Y86.263 E0.96487
G1 X118.975 Y86.467 E0.98314
G1 X120.629 Y87.185 E1.04311
G1 X121.325 Y87.503 E1.06856
G1 X122.378 Y88.056 E1.10812
G1 X123.195 Y88.567 E1.14017
G1 X124.889 Y89.69 E1.20777
G1 X125.81 Y90.389 E1.24623
G1 X126.576 Y91.066 E1.28023
G1 X127.361 Y91.788 E1.3157
G1 X128.03 Y92.422 E1.34636
G1 X128.807 Y93.244 E1.38398
G1 X129.115 Y93.615 E1.40001
G1 X130.142 Y94.924 E1.45535
G1 X130.655 Y95.603 E1.48366
G1 X131.075 Y96.2 E1.50794
G1 X131.393 Y96.713 E1.52801
G1 X131.825 Y97.482 E1.55735
G1 X132.368 Y98.486 E1.59531
G1 X132.739 Y99.194 E1.6219
G1 X132.967 Y99.659 E1.63912
G1 X133.251 Y100.326 E1.66323
G1 X133.595 Y101.274 E1.69677
G1 X133.931 Y102.254 E1.73123
G1 X134.217 Y103.13 E1.76188
G1 X134.512 Y104.233 E1.79986
G1 X134.605 Y104.7 E1.81569
G1 X134.884 Y106.329 E1.87066
G1 X135.069 Y107.592 E1.91312
G1 X135.133 Y108.462 E1.94213
G1 X135.148 Y109.412 E1.97374
G1 X135.147 Y110.63 E2.01425
G1 X135.124 Y111.715 E2.05034
G1 X135.045 Y112.616 E2.08042
G1 X134.898 Y113.59 E2.11319
G1 X134.699 Y114.779 E2.15328
G1 X134.571 Y115.475 E2.17682
G1 X134.283 Y116.668 E2.21764
G1 X133.964 Y117.652 E2.25204
G1 X133.634 Y118.612 E2.28581
G1 X133.296 Y119.553 E2.31906
G1 X132.885 Y120.515 E2.35386
G1 X132.399 Y121.457 E2.38911
G1 X131.8 Y122.564 E2.43098
G1 X131.427 Y123.227 E2.45628
G1 X130.792 Y124.212 E2.49526
G1 X130.234 Y124.957 E2.52622
G1 X129.441 Y125.975 E2.56913
G1 X128.688 Y126.894 E2.60865
G1 X128.2 Y127.413 E2.63235
G1 X127.873 Y127.733 E2.64756
G1 X126.597 Y128.911 E2.70532
G1 X125.996 Y129.447 E2.73211
G1 X125.036 Y130.21 E2.77289
G1 X124.217 Y130.766 E2.80582
G1 X123.356 Y131.327 E2.84
G1 X122.363 Y131.952 E2.87902
G1 X121.515 Y132.41 E2.91108
G1 X120.564 Y132.846 E2.94587
G1 X118.842 Y133.586 E3.00821
G1 X117.653 Y134.007 E3.05016
G1 X116.715 Y134.262 E3.08249
G1 X115.73 Y134.511 E3.11629
G1 X114.818 Y134.728 E3.14747
G1 X113.647 Y134.937 E3.18703
G1 X112.783 Y135.027 E3.21592
G1 X111.418 Y135.138 E3.26147
G1 X110.68 Y135.187 E3.28607
G1 X109.452 Y135.197 E3.32692
G1 X108.468 Y135.134 E3.35971
G1 X106.58 Y134.968 E3.42275
G1 X106.099 Y134.909 E3.43887
G1 X105.352 Y134.779 E3.46409
G1 X104.451 Y134.568 E3.49486
G1 X102.498 Y134.062 E3.56197
G1 X101.848 Y133.866 E3.58455
G1 X101.293 Y133.662 E3.60421
G1 X100.928 Y133.514 E3.61731
G1 X99.323 Y132.815 E3.67554
G1 X98.627 Y132.497 E3.70099
G1 X97.574 Y131.944 E3.74055
G1 X96.732 Y131.416 E3.7736
G1 X95.063 Y130.31 E3.8402
G1 X94.142 Y129.611 E3.87865
G1 X93.376 Y128.934 E3.91265
G1 X92.591 Y128.212 E3.94813
G1 X91.922 Y127.578 E3.97878
G1 X91.145 Y126.756 E4.0164
G1 X90.837 Y126.385 E4.03244
G1 X89.81 Y125.076 E4.08778
G1 X89.297 Y124.397 E4.11608
G1 X88.877 Y123.8 E4.14036
G1 X88.559 Y123.287 E4.16044
G1 X88.127 Y122.517 E4.1898
G1 X87.508 Y121.373 E4.23306
G1 X87.19 Y120.76 E4.25603
G1 X86.696 Y119.661 E4.29611
G1 X86.355 Y118.72 E4.3294
G1 X85.734 Y116.866 E4.39443
G1 X85.43 Y115.722 E4.4338
G1 X85.237 Y114.683 E4.46895
G1 X84.934 Y112.792 E4.53265
G1 X84.827 Y111.718 E4.56854
G1 X84.811 Y111.207 E4.58555
G1 X84.805 Y109.37 E4.64665
G1 X84.828 Y108.285 E4.68274
G1 X84.907 Y107.384 E4.71283
G1 X85.054 Y106.41 E4.74559
G1 X85.38 Y104.529 E4.80908
G1 X85.483 Y104.031 E4.826
G1 X85.674 Y103.317 E4.85058
G1 X85.988 Y102.348 E4.88446
G1 X86.318 Y101.388 E4.91822
G1 X86.624 Y100.536 E4.94833
G1 X86.977 Y99.674 E4.97931
G1 X87.279 Y99.064 E5.00195
G1 X88.154 Y97.434 E5.06348
G1 X88.601 Y96.644 E5.09367
G1 X89.156 Y95.793 E5.12747
G1 X89.719 Y95.042 E5.15868
G1 X90.954 Y93.472 E5.22512
G1 X91.372 Y92.985 E5.24647
G1 X91.755 Y92.584 E5.26491
M204 S2000
G0 F7500 X92.035 Y92.87
M204 S500
G1 F1500 X92.35 Y92.561 E5.27959
G1 X93.632 Y91.376 E5.33765
G1 X94.198 Y90.87 E5.3629
G1 X94.897 Y90.298 E5.39294
G1 X95.178 Y90.109 E5.40421
G1 X95.198 Y90.082 E5.40532
G1 X95.956 Y89.568 E5.43579
G1 X96.964 Y88.91 E5.47582
G1 X97.756 Y88.413 E5.50692
G1 X98.604 Y87.954 E5.53899
G1 X99.546 Y87.522 E5.57346
G1 X101.268 Y86.782 E5.6358
G1 X102.399 Y86.38 E5.67572
G1 X103.294 Y86.137 E5.70657
G1 X104.352 Y85.869 E5.74287
G1 X105.197 Y85.667 E5.77177
G1 X106.218 Y85.489 E5.80624
G1 X106.319 Y85.464 E5.8097
G1 X107.401 Y85.355 E5.84587
G1 X108.554 Y85.261 E5.88434
G1 X109.251 Y85.214 E5.90758
G1 X109.283 Y85.219 E5.90866
G1 X109.936 Y85.189 E5.9304
G1 X110.449 Y85.2 E5.94746
G1 X111.451 Y85.264 E5.98086
G1 X112.628 Y85.363 E6.02014
G1 X113.511 Y85.45 E6.04965
G1 X114.541 Y85.618 E6.08436
G1 X115.471 Y85.836 E6.11614
G1 X116.516 Y86.101 E6.15199
G1 X117.352 Y86.325 E6.18078
G1 X117.954 Y86.506 E6.20169
G1 X118.331 Y86.64 E6.21499
G1 X118.816 Y86.834 E6.23237
G1 X120.463 Y87.549 E6.29209
G1 X121.139 Y87.857 E6.31679
G1 X122.166 Y88.395 E6.35536
G1 X122.974 Y88.9 E6.38705
G1 X124.647 Y90.009 E6.45381
G1 X125.568 Y90.708 E6.49226
G1 X126.305 Y91.36 E6.52499
G1 X127.086 Y92.079 E6.5603
G1 X127.739 Y92.697 E6.5902
G1 X128.499 Y93.5 E6.62697
G1 X128.8 Y93.862 E6.64263
G1 X129.823 Y95.165 E6.69773
G1 X130.328 Y95.833 E6.72558
G1 X130.735 Y96.411 E6.7491
G1 X131.044 Y96.909 E6.76859
G1 X131.473 Y97.672 E6.7977
G1 X132.014 Y98.672 E6.83552
G1 X132.38 Y99.37 E6.86173
G1 X132.599 Y99.816 E6.87826
G1 X132.875 Y100.463 E6.90165
G1 X133.217 Y101.404 E6.93495
G1 X133.551 Y102.378 E6.9692
G1 X133.831 Y103.234 E6.99916
G1 X134.12 Y104.311 E7.03625
G1 X134.211 Y104.767 E7.05171
G1 X134.488 Y106.387 E7.10637
G1 X134.673 Y107.65 E7.14883
G1 X134.733 Y108.468 E7.17611
G1 X134.748 Y109.412 E7.20751
G1 X134.747 Y110.622 E7.24776
G1 X134.725 Y111.68 E7.28295
G1 X134.649 Y112.556 E7.3122
G1 X134.503 Y113.524 E7.34476
G1 X134.305 Y114.707 E7.38465
G1 X134.182 Y115.381 E7.40744
G1 X133.902 Y116.545 E7.44726
G1 X133.586 Y117.522 E7.48141
G1 X133.258 Y118.477 E7.515
G1 X132.928 Y119.396 E7.54747
G1 X132.517 Y120.358 E7.58227
G1 X132.047 Y121.267 E7.6163
G1 X131.451 Y122.368 E7.65794
G1 X131.078 Y123.031 E7.68325
G1 X130.472 Y123.972 E7.72047
G1 X129.919 Y124.711 E7.75117
G1 X129.129 Y125.724 E7.7939
G1 X128.696 Y126.263 E7.81689
G1 X128.396 Y126.62 E7.8324
G1 X127.92 Y127.127 E7.85553
G1 X127.601 Y127.439 E7.87037
G1 X126.331 Y128.613 E7.9279
G1 X125.747 Y129.134 E7.95393
G1 X124.811 Y129.879 E7.99372
G1 X123.998 Y130.431 E8.0264
G1 X123.143 Y130.989 E8.06036
G1 X122.173 Y131.6 E8.09849
G1 X121.348 Y132.046 E8.12968
G1 X120.406 Y132.478 E8.16415
G1 X118.684 Y133.218 E8.22649
G1 X117.548 Y133.621 E8.26658
G1 X116.617 Y133.874 E8.29867
G1 X115.637 Y134.122 E8.33229
G1 X114.748 Y134.334 E8.36269
G1 X113.577 Y134.543 E8.40225
G1 X112.75 Y134.628 E8.4299
G1 X111.391 Y134.739 E8.47525
G1 X110.679 Y134.787 E8.49899
G1 X109.52 Y134.791 E8.53754
G1 X109.477 Y134.798 E8.53898
G1 X108.503 Y134.736 E8.57145
G1 X106.628 Y134.571 E8.63405
G1 X106.167 Y134.515 E8.64949
G1 X105.443 Y134.39 E8.67393
G1 X104.551 Y134.181 E8.7044
G1 X102.613 Y133.679 E8.77099
G1 X101.986 Y133.49 E8.79277
G1 X101.443 Y133.291 E8.812
G1 X101.088 Y133.147 E8.82475
G1 X99.489 Y132.451 E8.88275
G1 X98.813 Y132.143 E8.90746
G1 X97.786 Y131.605 E8.94602
G1 X96.953 Y131.083 E8.97871
G1 X95.305 Y129.991 E9.04447
G1 X94.384 Y129.292 E9.08292
G1 X93.647 Y128.64 E9.11565
G1 X92.866 Y127.921 E9.15096
G1 X92.213 Y127.303 E9.18086
G1 X91.453 Y126.5 E9.21764
G1 X91.152 Y126.138 E9.23329
G1 X90.129 Y124.835 E9.28839
G1 X89.624 Y124.167 E9.31625
G1 X89.217 Y123.589 E9.33976
G1 X88.908 Y123.091 E9.35925
G1 X88.479 Y122.327 E9.38839
G1 X87.863 Y121.188 E9.43146
G1 X87.555 Y120.596 E9.45366
G1 X87.072 Y119.524 E9.49276
G1 X86.734 Y118.593 E9.52571
G1 X86.12 Y116.763 E9.58991
G1 X85.823 Y115.649 E9.62825
G1 X85.632 Y114.62 E9.66306
G1 X85.332 Y112.752 E9.72599
G1 X85.227 Y111.705 E9.76099
G1 X85.211 Y111.206 E9.77759
G1 X85.205 Y109.378 E9.83839
G1 X85.227 Y108.32 E9.87359
G1 X85.303 Y107.444 E9.90283
G1 X85.449 Y106.476 E9.93539
G1 X85.647 Y105.293 E9.97529
G1 X85.772 Y104.61 E9.99838
G1 X85.87 Y104.134 E10.01455
G1 X86.055 Y103.44 E10.03844
G1 X86.366 Y102.478 E10.07206
G1 X86.694 Y101.523 E10.10565
G1 X86.994 Y100.688 E10.13516
G1 X87.347 Y99.826 E10.16614
G1 X87.631 Y99.253 E10.18741
G1 X88.502 Y97.631 E10.24864
G1 X88.936 Y96.863 E10.27798
G1 X89.491 Y96.012 E10.31177
G1 X90.033 Y95.289 E10.34183
G1 X91.258 Y93.733 E10.40769
G1 X91.676 Y93.246 E10.42904
G1 X92.035 Y92.87 E10.44633
M204 S2000
G0 F7500 X92.315 Y93.156
M204 S500
G1 F1500 X92.622 Y92.855 E10.46063
G1 X93.899 Y91.674 E10.51848
G1 X94.451 Y91.18 E10.54312
G1 X95.15 Y90.608 E10.57316
G1 X95.428 Y90.422 E10.58429
G1 X95.422 Y90.413 E10.58465
G1 X96.175 Y89.903 E10.6149
G1 X97.177 Y89.249 E10.65469
G1 X97.969 Y88.752 E10.68579
G1 X98.771 Y88.318 E10.71612
G1 X99.713 Y87.886 E10.75059
G1 X101.402 Y87.159 E10.81175
G1 X102.504 Y86.766 E10.85066
G1 X103.392 Y86.525 E10.88127
G1 X104.445 Y86.258 E10.9174
G1 X105.266 Y86.061 E10.94548
G1 X106.36 Y85.87 E10.98242
G1 X106.359 Y85.862 E10.98269
G1 X107.434 Y85.754 E11.01862
G1 X108.581 Y85.66 E11.0569
G1 X109.278 Y85.613 E11.08013
G1 X109.279 Y85.62 E11.08037
G1 X109.954 Y85.589 E11.10284
G1 X110.423 Y85.599 E11.11844
G1 X111.418 Y85.663 E11.15161
G1 X112.589 Y85.761 E11.19069
G1 X113.447 Y85.845 E11.21936
G1 X114.477 Y86.013 E11.25407
G1 X115.373 Y86.224 E11.28469
G1 X116.412 Y86.487 E11.32034
G1 X117.237 Y86.708 E11.34875
G1 X117.82 Y86.883 E11.36899
G1 X118.183 Y87.012 E11.3818
G1 X118.657 Y87.201 E11.39878
G1 X120.297 Y87.913 E11.45824
G1 X120.973 Y88.221 E11.48295
G1 X121.954 Y88.734 E11.51977
G1 X122.753 Y89.234 E11.55112
G1 X124.405 Y90.328 E11.61702
G1 X125.326 Y91.027 E11.65548
G1 X126.034 Y91.655 E11.68695
G1 X126.811 Y92.369 E11.72205
G1 X127.448 Y92.972 E11.75122
G1 X128.208 Y93.775 E11.788
G1 X128.485 Y94.109 E11.80243
G1 X129.504 Y95.407 E11.85732
G1 X130.001 Y96.063 E11.88469
G1 X130.395 Y96.622 E11.90744
G1 X130.695 Y97.105 E11.92635
G1 X131.121 Y97.863 E11.95527
G1 X131.66 Y98.858 E11.9929
G1 X132.021 Y99.547 E12.01878
G1 X132.231 Y99.973 E12.03457
G1 X132.499 Y100.6 E12.05725
G1 X132.839 Y101.534 E12.09031
G1 X133.171 Y102.503 E12.12438
G1 X133.445 Y103.338 E12.15361
G1 X133.728 Y104.39 E12.18984
G1 X133.817 Y104.834 E12.2049
G1 X134.092 Y106.445 E12.25926
G1 X134.277 Y107.708 E12.30172
G1 X134.333 Y108.474 E12.32726
G1 X134.348 Y109.412 E12.35846
G1 X134.347 Y110.614 E12.39844
G1 X134.325 Y111.672 E12.43364
G1 X134.253 Y112.496 E12.46115
G1 X134.108 Y113.458 E12.49351
G1 X133.911 Y114.635 E12.5332
G1 X133.788 Y115.309 E12.55599
G1 X133.521 Y116.422 E12.59406
G1 X133.208 Y117.392 E12.62796
G1 X132.882 Y118.342 E12.66136
G1 X132.56 Y119.239 E12.69306
G1 X132.149 Y120.201 E12.72785
G1 X131.695 Y121.077 E12.76067
G1 X131.102 Y122.172 E12.80209
G1 X130.729 Y122.835 E12.82739
G1 X130.152 Y123.732 E12.86286
G1 X129.603 Y124.465 E12.89332
G1 X128.817 Y125.474 E12.93586
G1 X128.39 Y126.006 E12.95855
G1 X128.104 Y126.346 E12.97333
G1 X127.64 Y126.841 E12.9959
G1 X127.33 Y127.145 E13.01034
G1 X126.064 Y128.315 E13.06767
G1 X125.498 Y128.821 E13.09292
G1 X124.586 Y129.548 E13.13171
G1 X123.779 Y130.096 E13.16416
G1 X122.93 Y130.651 E13.1979
G1 X121.983 Y131.248 E13.23513
G1 X121.181 Y131.682 E13.26546
G1 X120.239 Y132.114 E13.29993
G1 X118.55 Y132.841 E13.36109
G1 X117.414 Y133.244 E13.40118
G1 X116.519 Y133.486 E13.43201
G1 X115.544 Y133.733 E13.46547
G1 X114.678 Y133.94 E13.49508
G1 X113.507 Y134.149 E13.53465
G1 X112.717 Y134.229 E13.56106
G1 X111.364 Y134.34 E13.60621
G1 X110.678 Y134.387 E13.62908
G1 X109.502 Y134.391 E13.66819
G1 X109.502 Y134.399 E13.66846
G1 X108.538 Y134.338 E13.70058
G1 X106.676 Y134.174 E13.76275
G1 X106.235 Y134.121 E13.77753
G1 X105.534 Y134 E13.80119
G1 X104.651 Y133.794 E13.83135
G1 X102.728 Y133.296 E13.89741
G1 X102.123 Y133.114 E13.91843
G1 X101.593 Y132.92 E13.9372
G1 X101.248 Y132.78 E13.94958
G1 X99.655 Y132.087 E14.00736
G1 X98.979 Y131.779 E14.03207
G1 X97.998 Y131.266 E14.06889
G1 X97.174 Y130.75 E14.10123
G1 X95.547 Y129.672 E14.16614
G1 X94.626 Y128.973 E14.2046
G1 X93.918 Y128.345 E14.23607
G1 X93.141 Y127.631 E14.27117
G1 X92.504 Y127.028 E14.30035
G1 X91.744 Y126.225 E14.33712
G1 X91.467 Y125.891 E14.35155
G1 X90.448 Y124.593 E14.40644
G1 X89.951 Y123.937 E14.43381
G1 X89.557 Y123.378 E14.45656
G1 X89.257 Y122.895 E14.47547
G1 X88.831 Y122.137 E14.50439
G1 X88.218 Y121.003 E14.54726
G1 X87.92 Y120.432 E14.56869
G1 X87.437 Y119.36 E14.60779
G1 X87.113 Y118.466 E14.63942
G1 X86.506 Y116.66 E14.70279
G1 X86.216 Y115.576 E14.74011
G1 X86.027 Y114.556 E14.77461
G1 X85.73 Y112.712 E14.83674
G1 X85.627 Y111.692 E14.87083
G1 X85.611 Y111.205 E14.88704
G1 X85.605 Y109.386 E14.94754
G1 X85.627 Y108.328 E14.98274
G1 X85.699 Y107.504 E15.01025
G1 X85.844 Y106.542 E15.04261
G1 X86.041 Y105.365 E15.0823
G1 X86.164 Y104.691 E15.10509
G1 X86.262 Y104.215 E15.12125
G1 X86.436 Y103.563 E15.14369
G1 X86.744 Y102.608 E15.17707
G1 X87.07 Y101.658 E15.21047
G1 X87.364 Y100.839 E15.23942
G1 X87.706 Y100.003 E15.26946
G1 X87.983 Y99.442 E15.29027
G1 X88.85 Y97.828 E15.3512
G1 X89.271 Y97.082 E15.37969
G1 X89.826 Y96.231 E15.41349
G1 X90.349 Y95.535 E15.44244
G1 X91.135 Y94.526 E15.48498
G1 X91.562 Y93.994 E15.50767
G1 X91.98 Y93.507 E15.52902
G1 X92.315 Y93.156 E15.54516
M204 S2000
G1 F2400 E14.74516
;MESH:Screamer_Trumpet_Mouthpiece.stl
G0 F7500 X101.152 Y105.485
G0 X110 Y119.726
M204 S500
;TYPE:WALL-INNER
G1 F2400 E15.54516
G1 F1500 X109.976 Y119.728 E15.54596
G1 X108.429 Y119.601 E15.59758
G1 X106.967 Y119.252 E15.64758
G1 X105.59 Y118.682 E15.69714
G1 X104.279 Y117.883 E15.74821
G1 X103.113 Y116.894 E15.79906
G1 X102.118 Y115.733 E15.84992
G1 X101.312 Y114.426 E15.90099
G1 X100.724 Y113.016 E15.9518
G1 X100.368 Y111.523 E16.00285
G1 X100.244 Y109.996 E16.05381
G1 X100.364 Y108.48 E16.10439
G1 X100.724 Y106.984 E16.15556
