;FLAVOR:Marlin
;TIME:5424
;Filament used: 2.84323m
;Layer height: 0.2
;MINX:84.792
;MINY:90.61
;MINZ:0.2
;MAXX:135.11
;MAXY:129.754
;MAXZ:84.4
;TARGET_MACHINE.NAME:Creality Ender-3 S1 Pro
;Generated with Cura_SteamEngine 5.10.2
; Ender 3 S1 Pro Start G-code
; M413 S0 ; Disable power loss recovery
G92 E0 ; Reset Extruder

; Prep surfaces before auto home for better accuracy
M140 S60
M104 S200

G28 ; Home all axes
G1 Z10.0 F3000 ; Move Z Axis up little to prevent scratching of Heat Bed
G1 X0 Y0

M190 S60
M109 S200

G1 X0.1 Y20 Z0.3 F5000.0 ; Move to start position
G1 X0.1 Y200.0 Z0.3 F1500.0 E15 ; Draw the first line
G1 X0.4 Y200.0 Z0.3 F5000.0 ; Move to side a little
G1 X0.4 Y20 Z0.3 F1500.0 E30 ; Draw the second line
G92 E0 ; Reset Extruder
G1 Z2.0 F3000 ; Move Z Axis up little to prevent scratching of Heat Bed
G1 X5 Y20 Z0.3 F5000.0 ; Move over to prevent blob squish

M82 ;absolute extrusion mode
G92 E0
G92 E0
G1 F2400 E-0.8
;LAYER_COUNT:422
;LAYER:0
M107
M204 S2000
G0 F7500 X90.658 Y95.569 Z0.2
M204 S500
;TYPE:SKIRT
G1 F2400 E0
G1 F1500 X91.084 Y95.184 E0.0191
G1 X91.979 Y94.491 E0.05675
G1 X92.646 Y94.051 E0.08332
G1 X93.392 Y93.603 E0.11227
G1 X94.093 Y93.229 E0.13869
G1 X94.97 Y92.827 E0.17078
G1 X95.997 Y92.466 E0.20699
G1 X96.873 Y92.244 E0.23704
G1 X97.331 Y92.158 E0.25254
G1 X98.757 Y91.927 E0.30059
G1 X102.693 Y91.202 E0.4337
G1 X103.653 Y91.087 E0.46586
G1 X104.407 Y91.057 E0.49096
G1 X105.449 Y91.051 E0.52562
G1 X108.026 Y91.001 E0.61134
G1 X110.545 Y90.879 E0.69523
G1 X113.451 Y90.653 E0.79217
G1 X114.354 Y90.61 E0.82224
G1 X115.6 Y90.673 E0.86373
G1 X116.846 Y90.802 E0.9054
G1 X117.757 Y90.934 E0.93601
G1 X118.289 Y91.034 E0.95402
G1 X119.842 Y91.302 E1.00643
G1 X121.528 Y91.615 E1.06347
G1 X122.745 Y91.87 E1.10483
G1 X123.62 Y92.094 E1.13487
G1 X124.604 Y92.44 E1.16956
G1 X125.368 Y92.785 E1.19744
G1 X125.927 Y93.066 E1.21825
G1 X126.466 Y93.355 E1.23859
G1 X127.262 Y93.838 E1.26956
G1 X127.742 Y94.177 E1.2891
G1 X128.245 Y94.558 E1.31009
G1 X128.949 Y95.16 E1.3409
G1 X129.694 Y95.922 E1.37635
G1 X130.346 Y96.656 E1.409
G1 X131.034 Y97.474 E1.44455
G1 X131.599 Y98.216 E1.47557
G1 X131.979 Y98.799 E1.49871
G1 X132.225 Y99.217 E1.51485
G1 X132.496 Y99.707 E1.53347
G1 X132.905 Y100.505 E1.56329
G1 X133.318 Y101.381 E1.59551
G1 X133.661 Y102.14 E1.62321
G1 X134.025 Y103.084 E1.65686
G1 X134.227 Y103.762 E1.68039
G1 X134.449 Y104.659 E1.71112
G1 X134.697 Y105.759 E1.74863
G1 X134.867 Y106.563 E1.77596
G1 X134.957 Y107.051 E1.79247
G1 X135.072 Y108.01 E1.82459
G1 X135.101 Y108.703 E1.84766
G1 X135.11 Y109.603 E1.8776
G1 X135.105 Y110.56 E1.90943
G1 X135.082 Y111.619 E1.94466
G1 X135.006 Y112.519 E1.9747
G1 X134.893 Y113.22 E1.99831
G1 X134.773 Y113.788 E2.01762
G1 X134.2 Y116.09 E2.09652
G1 X133.91 Y117.032 E2.12931
G1 X133.438 Y118.154 E2.16979
G1 X132.913 Y119.2 E2.20872
G1 X132.627 Y119.695 E2.22773
G1 X131.622 Y121.28 E2.29015
G1 X131.247 Y121.827 E2.31221
G1 X130.768 Y122.439 E2.33806
G1 X130.301 Y122.967 E2.36151
G1 X129.987 Y123.292 E2.37654
G1 X129.235 Y123.978 E2.41039
G1 X128.61 Y124.462 E2.43668
G1 X127.719 Y125.1 E2.47313
G1 X126.954 Y125.599 E2.50351
G1 X126.096 Y126.061 E2.53592
G1 X125.223 Y126.436 E2.56752
G1 X122.978 Y127.236 E2.64679
G1 X122.304 Y127.489 E2.67074
G1 X121.486 Y127.78 E2.69961
G1 X118.971 Y128.616 E2.78776
G1 X118.434 Y128.773 E2.80637
G1 X116.766 Y129.173 E2.86342
G1 X115.792 Y129.34 E2.89629
G1 X114.494 Y129.428 E2.93956
G1 X113.471 Y129.436 E2.97359
G1 X110.861 Y129.494 E3.06042
G1 X106.737 Y129.735 E3.19782
G1 X105.765 Y129.754 E3.23015
G1 X104.824 Y129.691 E3.26152
G1 X104.334 Y129.61 E3.27804
G1 X104.181 Y129.6 E3.28314
G1 X103.477 Y129.458 E3.30702
G1 X103.072 Y129.359 E3.32089
G1 X101.569 Y128.95 E3.3727
G1 X100.7 Y128.689 E3.40288
G1 X99.819 Y128.379 E3.43394
G1 X97.353 Y127.543 E3.52054
G1 X95.465 Y126.952 E3.58634
G1 X94.534 Y126.607 E3.61937
G1 X93.717 Y126.222 E3.64941
G1 X93.017 Y125.823 E3.67621
G1 X92.29 Y125.367 E3.70475
G1 X91.947 Y125.14 E3.71843
G1 X91.875 Y125.079 E3.72157
G1 X91.439 Y124.782 E3.73911
G1 X90.734 Y124.209 E3.76933
G1 X90.343 Y123.851 E3.78696
G1 X90.054 Y123.569 E3.80039
G1 X89.565 Y123.058 E3.82392
G1 X89.032 Y122.473 E3.85024
G1 X88.676 Y122.023 E3.86932
G1 X88.225 Y121.374 E3.89561
G1 X87.781 Y120.676 E3.92312
G1 X87.544 Y120.285 E3.93833
G1 X87.227 Y119.718 E3.95994
G1 X86.691 Y118.687 E3.99859
G1 X86.466 Y118.223 E4.01574
G1 X86.087 Y117.339 E4.04773
G1 X85.709 Y116.148 E4.08929
G1 X85.43 Y115.043 E4.12719
G1 X85.075 Y113.489 E4.18021
G1 X84.937 Y112.718 E4.20626
G1 X84.836 Y111.699 E4.24032
G1 X84.816 Y111.21 E4.2566
G1 X84.792 Y109.48 E4.31414
G1 X84.794 Y108.734 E4.33896
G1 X84.843 Y107.767 E4.37116
G1 X84.953 Y106.936 E4.39904
G1 X85.033 Y106.501 E4.41375
G1 X85.388 Y104.807 E4.47132
G1 X85.546 Y104.107 E4.49518
G1 X85.806 Y103.168 E4.52759
G1 X86.141 Y102.267 E4.55956
G1 X86.379 Y101.745 E4.57864
G1 X87.227 Y100 E4.64317
G1 X87.541 Y99.411 E4.66537
G1 X87.813 Y98.94 E4.68346
G1 X88.297 Y98.178 E4.71349
G1 X88.933 Y97.349 E4.74824
G1 X89.53 Y96.697 E4.77764
G1 X90.658 Y95.569 E4.8307
M204 S2000
G0 F7500 X90.926 Y95.866
M204 S500
G1 F1500 X91.352 Y95.481 E4.8498
G1 X92.199 Y94.825 E4.88543
G1 X92.852 Y94.394 E4.91145
G1 X93.581 Y93.956 E4.93974
G1 X94.26 Y93.593 E4.96535
G1 X95.137 Y93.191 E4.99744
G1 X96.095 Y92.854 E5.03121
G1 X96.971 Y92.632 E5.06127
G1 X97.395 Y92.553 E5.07562
G1 X98.821 Y92.321 E5.12367
G1 X102.741 Y91.599 E5.25624
G1 X103.669 Y91.487 E5.28733
G1 X104.409 Y91.457 E5.31196
G1 X105.457 Y91.451 E5.34682
G1 X108.045 Y91.401 E5.43291
G1 X110.564 Y91.279 E5.51679
G1 X113.47 Y91.053 E5.61374
G1 X114.373 Y91.01 E5.64381
G1 X115.559 Y91.071 E5.68331
G1 X116.789 Y91.198 E5.72443
G1 X117.683 Y91.327 E5.75448
G1 X118.213 Y91.427 E5.77242
G1 X119.769 Y91.695 E5.82493
G1 X121.446 Y92.007 E5.88166
G1 X122.646 Y92.258 E5.92244
G1 X123.521 Y92.482 E5.95248
G1 X124.439 Y92.805 E5.98485
G1 X125.203 Y93.15 E6.01273
G1 X125.738 Y93.419 E6.03265
G1 X126.258 Y93.697 E6.05226
G1 X127.054 Y94.18 E6.08323
G1 X127.5 Y94.496 E6.10141
G1 X128.003 Y94.877 E6.12239
G1 X128.689 Y95.464 E6.15242
G1 X129.395 Y96.187 E6.18603
G1 X130.04 Y96.914 E6.21836
G1 X130.716 Y97.717 E6.25327
G1 X131.264 Y98.435 E6.28331
G1 X131.634 Y99.002 E6.30583
G1 X131.875 Y99.411 E6.32162
G1 X132.14 Y99.889 E6.3398
G1 X132.543 Y100.676 E6.36921
G1 X132.953 Y101.546 E6.4012
G1 X133.296 Y102.305 E6.4289
G1 X133.642 Y103.199 E6.46078
G1 X133.839 Y103.858 E6.48366
G1 X134.059 Y104.747 E6.51412
G1 X134.306 Y105.842 E6.55145
G1 X134.474 Y106.636 E6.57845
G1 X134.56 Y107.099 E6.59411
G1 X134.672 Y108.027 E6.6252
G1 X134.701 Y108.707 E6.64784
G1 X134.71 Y109.601 E6.67757
G1 X134.705 Y110.551 E6.70917
G1 X134.683 Y111.585 E6.74357
G1 X134.607 Y112.485 E6.77361
G1 X134.502 Y113.137 E6.79557
G1 X134.385 Y113.692 E6.81444
G1 X133.818 Y115.973 E6.89261
G1 X133.541 Y116.877 E6.92406
G1 X133.069 Y117.999 E6.96455
G1 X132.566 Y119 E7.00181
G1 X132.289 Y119.481 E7.02027
G1 X131.292 Y121.054 E7.08221
G1 X130.932 Y121.58 E7.10341
G1 X130.453 Y122.192 E7.12926
G1 X130.013 Y122.689 E7.15134
G1 X129.699 Y123.014 E7.16637
G1 X128.99 Y123.662 E7.19831
G1 X128.377 Y124.137 E7.22411
G1 X127.5 Y124.765 E7.25998
G1 X126.764 Y125.247 E7.28925
G1 X125.938 Y125.693 E7.32047
G1 X125.065 Y126.068 E7.35207
G1 X122.844 Y126.859 E7.43048
G1 X122.163 Y127.115 E7.45468
G1 X121.36 Y127.4 E7.48302
G1 X118.859 Y128.232 E7.57069
G1 X118.34 Y128.384 E7.58868
G1 X116.697 Y128.779 E7.64488
G1 X115.765 Y128.941 E7.67634
G1 X114.491 Y129.028 E7.71881
G1 X113.462 Y129.036 E7.75304
G1 X110.852 Y129.094 E7.83987
G1 X106.728 Y129.335 E7.97727
G1 X105.791 Y129.355 E8.00844
G1 X104.889 Y129.296 E8.03851
G1 X104.373 Y129.211 E8.0559
G1 X104.26 Y129.208 E8.05966
G1 X103.572 Y129.07 E8.083
G1 X103.177 Y128.973 E8.09653
G1 X101.684 Y128.567 E8.14799
G1 X100.833 Y128.312 E8.17753
G1 X99.947 Y128 E8.20878
G1 X97.472 Y127.161 E8.2957
G1 X95.604 Y126.577 E8.36079
G1 X94.705 Y126.245 E8.39267
G1 X93.888 Y125.86 E8.42271
G1 X93.23 Y125.484 E8.44791
G1 X92.511 Y125.033 E8.47614
G1 X92.168 Y124.806 E8.48982
G1 X92.138 Y124.774 E8.49128
G1 X91.664 Y124.451 E8.51036
G1 X91.004 Y123.914 E8.53866
G1 X90.622 Y123.565 E8.55587
G1 X90.343 Y123.293 E8.56883
G1 X89.86 Y122.788 E8.59207
G1 X89.346 Y122.225 E8.61743
G1 X88.99 Y121.775 E8.63651
G1 X88.562 Y121.159 E8.66146
G1 X88.123 Y120.469 E8.68866
G1 X87.893 Y120.089 E8.70343
G1 X87.582 Y119.534 E8.72459
G1 X87.051 Y118.512 E8.7629
G1 X86.834 Y118.065 E8.77942
G1 X86.455 Y117.181 E8.81142
G1 X86.097 Y116.05 E8.85087
G1 X85.82 Y114.954 E8.88847
G1 X85.469 Y113.419 E8.94084
G1 X85.331 Y112.648 E8.96689
G1 X85.236 Y111.682 E8.99918
G1 X85.216 Y111.204 E9.01509
G1 X85.192 Y109.481 E9.0724
G1 X85.194 Y108.754 E9.09658
G1 X85.24 Y107.819 E9.12772
G1 X85.35 Y106.988 E9.1556
G1 X85.424 Y106.583 E9.16929
G1 X85.778 Y104.895 E9.22666
G1 X85.932 Y104.213 E9.24991
G1 X86.181 Y103.307 E9.28116
G1 X86.505 Y102.433 E9.31217
G1 X86.739 Y101.92 E9.33092
G1 X87.58 Y100.188 E9.39496
G1 X87.888 Y99.611 E9.41671
G1 X88.151 Y99.154 E9.43425
G1 X88.635 Y98.392 E9.46427
G1 X89.228 Y97.619 E9.49668
G1 X89.813 Y96.98 E9.52549
G1 X90.926 Y95.866 E9.57787
M204 S2000
G0 F7500 X91.194 Y96.163
M204 S500
G1 F1500 X91.62 Y95.778 E9.59697
G1 X92.419 Y95.159 E9.63058
G1 X93.058 Y94.737 E9.65605
G1 X93.77 Y94.309 E9.68368
G1 X94.449 Y93.946 E9.70929
G1 X95.27 Y93.568 E9.73935
G1 X96.193 Y93.242 E9.77191
G1 X97.069 Y93.02 E9.80197
G1 X97.459 Y92.948 E9.81516
G1 X98.885 Y92.716 E9.86321
G1 X102.789 Y91.996 E9.99525
G1 X103.686 Y91.887 E10.0253
G1 X104.411 Y91.857 E10.04944
G1 X105.465 Y91.851 E10.08449
G1 X108.064 Y91.801 E10.17095
G1 X110.583 Y91.679 E10.25483
G1 X113.489 Y91.453 E10.35178
G1 X114.392 Y91.41 E10.38185
G1 X115.518 Y91.469 E10.41935
G1 X116.732 Y91.594 E10.45994
G1 X117.609 Y91.72 E10.48941
G1 X118.137 Y91.82 E10.50728
G1 X119.696 Y92.088 E10.5599
G1 X121.364 Y92.399 E10.61633
G1 X122.547 Y92.646 E10.65652
G1 X123.422 Y92.87 E10.68657
G1 X124.274 Y93.17 E10.71661
G1 X125.038 Y93.515 E10.74449
G1 X125.55 Y93.772 E10.76354
G1 X126.051 Y94.039 E10.78243
G1 X126.823 Y94.507 E10.81245
G1 X127.259 Y94.815 E10.83021
G1 X127.743 Y95.181 E10.85039
G1 X128.429 Y95.768 E10.88042
G1 X129.096 Y96.452 E10.9122
G1 X129.734 Y97.172 E10.94419
G1 X130.398 Y97.96 E10.97846
G1 X130.946 Y98.678 E11.00851
G1 X131.289 Y99.205 E11.02942
G1 X131.525 Y99.605 E11.04487
G1 X131.784 Y100.071 E11.0626
G1 X132.181 Y100.847 E11.09159
G1 X132.589 Y101.711 E11.12337
G1 X132.923 Y102.449 E11.15031
G1 X133.269 Y103.343 E11.1822
G1 X133.451 Y103.954 E11.2034
G1 X133.669 Y104.835 E11.23359
G1 X133.915 Y105.925 E11.27075
G1 X134.081 Y106.71 E11.29744
G1 X134.163 Y107.147 E11.31223
G1 X134.272 Y108.044 E11.34228
G1 X134.301 Y108.711 E11.36449
G1 X134.31 Y109.599 E11.39402
G1 X134.305 Y110.543 E11.42542
G1 X134.284 Y111.551 E11.45895
G1 X134.208 Y112.451 E11.489
G1 X134.111 Y113.055 E11.50934
G1 X133.997 Y113.596 E11.52773
G1 X133.435 Y115.857 E11.60522
G1 X133.172 Y116.722 E11.63529
G1 X132.711 Y117.82 E11.6749
G1 X132.219 Y118.801 E11.7114
G1 X131.951 Y119.267 E11.72928
G1 X130.962 Y120.828 E11.79074
G1 X130.602 Y121.354 E11.81194
G1 X130.154 Y121.927 E11.83613
G1 X129.725 Y122.411 E11.85765
G1 X129.411 Y122.736 E11.87268
G1 X128.745 Y123.346 E11.90271
G1 X128.144 Y123.812 E11.92801
G1 X127.281 Y124.431 E11.96333
G1 X126.574 Y124.895 E11.99146
G1 X125.78 Y125.325 E12.02149
G1 X124.907 Y125.7 E12.05309
G1 X122.71 Y126.482 E12.13066
G1 X122.022 Y126.741 E12.15511
G1 X121.234 Y127.02 E12.18291
G1 X118.746 Y127.848 E12.27012
G1 X118.246 Y127.995 E12.28746
G1 X116.628 Y128.385 E12.34281
G1 X115.738 Y128.542 E12.37287
G1 X114.488 Y128.628 E12.41455
G1 X113.453 Y128.636 E12.44897
G1 X110.843 Y128.694 E12.5358
G1 X106.719 Y128.935 E12.6732
G1 X105.817 Y128.956 E12.70321
G1 X104.915 Y128.897 E12.73327
G1 X104.341 Y128.8 E12.75264
G1 X104.338 Y128.816 E12.75318
G1 X103.668 Y128.682 E12.7759
G1 X103.282 Y128.587 E12.78912
G1 X101.799 Y128.184 E12.84024
G1 X100.966 Y127.935 E12.86915
G1 X100.075 Y127.621 E12.90058
G1 X97.591 Y126.779 E12.98781
G1 X95.723 Y126.195 E13.05291
G1 X94.876 Y125.883 E13.08293
G1 X94.059 Y125.498 E13.11297
G1 X93.443 Y125.145 E13.13658
G1 X92.732 Y124.699 E13.1645
G1 X92.389 Y124.472 E13.17818
G1 X92.394 Y124.465 E13.17846
G1 X91.916 Y124.141 E13.19767
G1 X91.274 Y123.619 E13.22519
G1 X90.901 Y123.278 E13.242
G1 X90.632 Y123.017 E13.25447
G1 X90.155 Y122.518 E13.27743
G1 X89.659 Y121.976 E13.30186
G1 X89.318 Y121.546 E13.32012
G1 X88.899 Y120.944 E13.34451
G1 X88.465 Y120.262 E13.3714
G1 X88.242 Y119.893 E13.38574
G1 X87.937 Y119.35 E13.40645
G1 X87.411 Y118.337 E13.44442
G1 X87.194 Y117.89 E13.46094
G1 X86.836 Y117.06 E13.49101
G1 X86.485 Y115.952 E13.52966
G1 X86.21 Y114.865 E13.56696
G1 X85.863 Y113.349 E13.61868
G1 X85.725 Y112.578 E13.64473
G1 X85.636 Y111.665 E13.67524
G1 X85.616 Y111.198 E13.69079
G1 X85.592 Y109.482 E13.74787
G1 X85.594 Y108.773 E13.77145
G1 X85.637 Y107.871 E13.80149
G1 X85.744 Y107.06 E13.8287
G1 X85.816 Y106.665 E13.84205
G1 X86.168 Y104.983 E13.8992
G1 X86.318 Y104.318 E13.92188
G1 X86.556 Y103.446 E13.95194
G1 X86.869 Y102.599 E13.98198
G1 X87.099 Y102.095 E14.0004
G1 X87.933 Y100.376 E14.06395
G1 X88.235 Y99.81 E14.08529
G1 X88.489 Y99.368 E14.10224
G1 X88.973 Y98.606 E14.13227
G1 X89.523 Y97.889 E14.16232
G1 X90.096 Y97.263 E14.19055
G1 X91.194 Y96.163 E14.24224
M204 S2000
G1 F2400 E13.44224
;MESH:Wedge_Screamer_Trumpet_Mouthpiece.stl
G0 F7500 X97.014 Y106.144
G0 X100.432 Y112.513
M204 S500
;TYPE:WALL-INNER
G1 F2400 E14.24224
G1 F1500 X100.292 Y111.456 E14.27771
G1 X100.216 Y109.938 E14.32826
G1 X100.303 Y108.459 E14.37753
G1 X100.358 Y108.097 E14.38971
G1 X100.481 Y107.03 E14.42544
G1 X99.056 Y107.307 E14.47372
G1 X97.776 Y107.156 E14.51659
G1 X97.565 Y107.333 E14.52575
G1 X97.407 Y107.761 E14.54092
G1 X97.118 Y108.927 E14.58088
G1 X97.163 Y110.984 E14.64931
G1 X97.268 Y111.348 E14.66191
G1 X97.643 Y112.155 E14.69151
G1 X99.652 Y112.153 E14.75833
G1 X99.846 Y112.213 E14.76508
G1 X100.432 Y112.513 E14.78698
M204 S2000
G0 F7500 X100.914 Y113.21
M204 S500
;TYPE:WALL-OUTER
G1 F1500 X100.929 Y113.172 E14.78834
G1 X100.877 Y112.891 E14.79784
G1 X100.816 Y112.348 E14.81601
G1 X100.693 Y111.452 E14.84609
G1 X100.616 Y109.96 E14.89578
G1 X100.698 Y108.521 E14.94372
G1 X100.753 Y108.164 E14.95574
G1 X100.883 Y107.061 E14.99268
G1 X100.951 Y106.715 E15.00441
G1 X100.911 Y106.535 E15.01054
G1 X99.045 Y106.9 E15.07378
G1 X97.651 Y106.738 E15.12045
G1 X97.226 Y107.095 E15.13892
G1 X97.024 Y107.643 E15.15834
G1 X96.717 Y108.883 E15.20083
G1 X96.764 Y111.045 E15.27275
G1 X96.892 Y111.489 E15.28812
G1 X97.33 Y112.43 E15.32264
G1 X97.484 Y112.556 E15.32926
G1 X99.625 Y112.549 E15.40047
G1 X100.914 Y113.21 E15.44865
M204 S2000
G0 F7500 X100.605 Y112.764
G0 X99.907 Y112.129
G0 X99.984 Y111.881
M204 S500
;TYPE:SKIN
G1 F1500 X99.662 Y111.788 E15.4598
G1 X97.872 Y111.795 E15.51934
G1 X97.604 Y111.217 E15.54053
G1 X97.52 Y110.925 E15.55063
G1 X97.477 Y108.967 E15.61577
G1 X97.748 Y107.872 E15.65329
G1 X97.877 Y107.529 E15.66548
G1 X99.048 Y107.667 E15.7047
G1 X100.066 Y107.472 E15.73917
G1 X100.002 Y108.038 E15.75812
G1 X99.946 Y108.401 E15.77033
G1 X99.856 Y109.972 E15.82267
G1 X99.932 Y111.479 E15.87286
G1 X99.984 Y111.881 E15.88634
M204 S2000
G0 F7500 X99.907 Y112.129
G0 X98.582 Y112.053
G0 X98.581 Y111.592
M204 S500
G1 F1500 X97.714 Y110.725 E15.92712
M204 S2000
G0 F7500 X97.702 Y110.147
M204 S500
G1 F1500 X99.146 Y111.591 E15.99504
M204 S2000
